X:1
T:Partition sans titre
C:Compositeur / Arrangeur
L:1/8
M:4/4
I:linebreak $
K:D
V:1 treble nm="Violon" snm="Vln."
V:1
"Em" PE3 F EDB,D | GFGB"D" A3 A |"Em" Bdgf edBA | GE PE2"D" D2 B,D |"Em" PE3 F EDB,D | %5
 GFGB"D" PA2 GA |"Em" (3Bcd gf edBA |1 GEED EFGF :|2 GEED E2 (3Bcd |:"Em" e2 ed B2 BA | %10
 GFGB"D" d2 Bd |"Em" efed BdBA | GE PE2"D" D2 B,D |"Em" PE3 F EDB,D | GFGB"D" PA2 GA | %15
"Em" (3Bcd gf edBA |1 GEED E2 (3Bcd :|2 GEED EFGF |] %18
